X:161
T:Liverpool Hp,aka TS.161
T:Hornpipe,untitled in MS TS.161
M:C|
L:1/8
Q:1/2=90
S:Thomas Sands’ MS,1810,Lincolnshire
R:.hornpipe
C:Pencil note “Bonum” in MS
O:England;Lincolnshire
Z:vmp.Ruairidh Greig, 2011
K:D
(AG)|FDFA d2d2|efge dcBA|BGGB AFFA|GEEG AFED|
FDFAd2d2|efge dcBA|fgaf gedc|d2d2″min.in ms” d2:|
|:fddf ecce|dBBd dcBA|BGGB AFFA|GEEG AFED|
FDFAd2d2|efge dcBA|fgaf gedc|d2d2d4:|]

